svgs/sharp-light/message.svg

<svg xmlns="http://www.w3.org/2000/svg" viewBox="0 0 512 512"><!--! Font Awesome Pro 6.6.0 by @fontawesome - https://fontawesome.com License - https://fontawesome.com/license (Commercial License) Copyright 2024 Fonticons, Inc. --><path d="M128 416l32 0 0 32 0 25.5 0 38.5 32-21.3L304 416l176 0 32 0 0-32 0-352 0-32L480 0 32 0 0 0 0 32 0 384l0 32 32 0 96 0zM32 384L32 32l448 0 0 352-176 0-9.7 0-8.1 5.4L192 452.2l0-36.2 0-32-32 0L32 384z"/></svg>

<svg xmlns="http://www.w3.org/2000/svg" viewBox="0 0 512 512"><!--! Font Awesome Pro 6.5.2 by @fontawesome - https://fontawesome.com License - https://fontawesome.com/license (Commercial License) Copyright 2024 Fonticons, Inc. --><path d="M128 416h32v32 25.5V512l32-21.3L304 416H480h32V384 32 0H480 32 0V32 384v32H32h96zM32 384V32H480V384H304h-9.7l-8.1 5.4L192 452.2V416 384H160 32z"/></svg>
